to dcr :step :length
  make "step :step - 1
  make "length :length / 1.41421
  if :step > 0 [rt 45 dcr :step :length lt 90 dcl :step :length rt 45]
  if :step = 0 [rt 45 fd :length lt 90 fd :length rt 45]
end

to dcl :step :length
  make "step :step - 1
  make "length :length / 1.41421
  if :step > 0 [lt 45 dcr :step :length rt 90 dcl :step :length lt 45]
  if :step = 0 [lt 45 fd :length rt 90 fd :length lt 45]
end
