to dc :step :length :dir
  if :step = 0 [fd :length stop]
  rt :dir
  dc :step-1 :length/1.41421  45
  lt :dir lt :dir
  dc :step-1 :length/1.41421 -45
  rt :dir
end
to dragon :step :length
  dc :step :length 45
end
